X:399
T: MIR BLUEHET KEIN FRUEHLING
N: B0472
O: Europa, Mitteleuropa, Deutschland, Thueringen
R: Liebes - Lied, Leid, Klage
M: 4/4
L: 1/8
K: G
D2 | B4cBAG | FAc2z2
D2 | c4dcBA | GBd2z2
G2 | Gee4d2 | d^c=c2z2
c2 | B3ddcBA | A2G2z2

